images/icons/v2/video-outline-24.svg

<svg height="24" viewBox="0 0 24 24" width="24" xmlns="http://www.w3.org/2000/svg"><path d="m22 6.56a1.06 1.06 0 0 0 -.42.09l-3.58 1.66v-1.81a3 3 0 0 0 -3-3h-11a3 3 0 0 0 -3 3v11a3 3 0 0 0 3 3h11a3 3 0 0 0 3-3v-1.81l3.58 1.66a1.06 1.06 0 0 0 .42.09 1 1 0 0 0 1-1v-8.88a1 1 0 0 0 -1-1zm-5.5 10.94a1.5 1.5 0 0 1 -1.5 1.5h-11a1.5 1.5 0 0 1 -1.5-1.5v-11a1.5 1.5 0 0 1 1.5-1.5h11a1.5 1.5 0 0 1 1.5 1.5zm5-9.16v7.66l-1-.81-2.5-1.19v-4l2.48-1.15 1-.81z"/></svg>

<svg xmlns="http://www.w3.org/2000/svg" width="24" height="24" viewBox="0 0 24 24"><title>video-outline-24</title><path d="M22,6.56a1.06,1.06,0,0,0-.42.09L18,8.31V6.5a3,3,0,0,0-3-3H4a3,3,0,0,0-3,3v11a3,3,0,0,0,3,3H15a3,3,0,0,0,3-3V15.69l3.58,1.66a1.06,1.06,0,0,0,.42.09,1,1,0,0,0,1-1V7.56A1,1,0,0,0,22,6.56ZM16.5,17.5A1.5,1.5,0,0,1,15,19H4a1.5,1.5,0,0,1-1.5-1.5V6.5A1.5,1.5,0,0,1,4,5H15a1.5,1.5,0,0,1,1.5,1.5Zm5-9.16V16l-1-.81L18,14V10l2.48-1.15,1-.81Z"/></svg>
